.storybook/logo.svg

<svg width="100" height="16" viewBox="0 0 100 16" fill="none" xmlns="http://www.w3.org/2000/svg">
  <path
    fill-rule="evenodd"
    clip-rule="evenodd"
    d="M88.3849 1.32945C88.3849 0.527646 88.9516 0 89.7725 0C90.5935 0 91.1801 0.527646 91.1801 1.32945C91.1801 2.15041 90.5935 2.67882 89.7725 2.67882C88.9516 2.67882 88.3849 2.15041 88.3849 1.32945ZM88.6583 4.69214H90.9067V15.4449H88.6583V4.69214ZM75.8922 1.03614H78.1597V7.85955H78.2187L83.6927 1.03614H86.2146L81.7575 6.60821L86.9582 15.4449H84.4356L80.3691 8.38719L78.1597 11.1043V15.4442H75.8922V1.03614ZM94.6209 6.48875V11.926C94.6209 14.1936 95.4618 15.6992 97.8886 15.7007C98.6705 15.7007 99.3942 15.5054 100 15.3094L99.5895 13.6476C99.2242 13.8032 98.8331 13.8894 98.4362 13.9018C97.3219 13.9018 96.8724 13.2371 96.8724 11.9467V6.49104H99.6676V4.68679H96.8724V1.71543H94.9954L94.7412 4.68679L93.0564 4.80395V6.48875H94.6209Z"
    fill="#002033"
    fill-opacity="0.6"
  />
  <path
    fill-rule="evenodd"
    clip-rule="evenodd"
    d="M10.7865 11.1541C10.121 11.6802 9.26558 12.0019 7.96447 11.9123C5.74361 11.7591 4.44172 10.1134 4.44172 8.08319C4.44172 6.05302 5.82019 4.3307 7.96447 4.25412C9.26635 4.2074 10.0842 4.4785 10.7474 4.98241L12.871 1.94902C11.5347 0.89143 9.7312 0.425049 7.65814 0.425049C3.21642 0.425049 0 3.64147 0 8.08319C0 12.5249 3.21642 15.7413 7.65814 15.7413C9.76872 15.7413 11.6028 15.2566 12.9461 14.1569L10.7865 11.1541ZM69.153 8.08317C69.153 5.93889 67.3151 4.10093 63.7923 4.10093C61.9597 4.10093 60.6762 4.42947 59.9395 4.69367L60.5659 7.55552C64.4815 6.39837 65.7834 7.70026 65.6303 9.30847C65.6303 9.30847 64.0986 8.54265 62.4138 8.54265C59.9632 8.54265 58.5848 10.2274 58.5848 12.1037C58.5848 14.516 60.1164 15.7413 62.4138 15.7413C63.7632 15.7413 64.9479 15.134 65.6303 14.2166V15.435H69.153V8.08317ZM63.6391 13.061C62.7202 13.061 62.2607 12.6015 62.2607 11.8357C62.2607 11.0698 62.8733 10.6104 63.6391 10.6104C64.4968 10.6104 64.9542 10.7437 65.487 10.8991L65.6027 10.9328C65.6027 11.9888 65.0176 13.061 63.6391 13.061ZM13.3321 9.92112C13.3321 6.54541 15.9297 4.10093 19.3054 4.10093C22.6811 4.10093 25.2841 6.54541 25.2788 9.92112C25.2734 13.2968 22.6811 15.7413 19.3054 15.7413C15.9297 15.7413 13.3321 13.2968 13.3321 9.92112ZM17.0777 9.92112C17.0777 11.3762 17.9966 12.3717 19.2985 12.3717C20.6004 12.3717 21.5194 11.2996 21.5194 9.92112C21.5194 8.54265 20.6004 7.47051 19.2985 7.47051C17.9966 7.47051 17.0777 8.54265 17.0777 9.92112ZM33.3129 4.10093C32.0271 4.10093 30.8179 4.80625 30.0199 5.75586V4.40726H26.4972V15.435H30.0199V9.00214C30.0199 8.57562 30.1893 8.16656 30.4909 7.86497C30.7925 7.56337 31.2016 7.39393 31.6281 7.39393C32.0546 7.39393 32.4637 7.56337 32.7653 7.86497C33.0669 8.16656 33.2363 8.57562 33.2363 9.00214V15.435H36.7591V7.62368C36.7591 5.63256 35.4572 4.10093 33.3129 4.10093ZM53.3007 10.7099C53.3007 11.7591 53.9899 12.3717 55.2918 12.3717C55.8168 12.3565 56.3331 12.2329 56.8081 12.0087L57.7776 14.8338C57.0516 15.1968 55.6946 15.7413 54.1017 15.7413C51.3616 15.7413 49.8369 14.4164 49.7779 12.5249V1.42058H53.3007V4.40725H56.6702L56.5171 7.47051H53.3007V10.7099ZM58.3313 14.4494L58.3244 14.5351L58.355 14.516L58.3313 14.4494ZM39.2097 12.0654L37.9844 14.2097C39.4984 15.268 41.2835 15.8179 43.339 15.8209C46.2123 15.8209 48.0165 14.3368 48.0165 11.9153V11.8747C48.0165 9.59564 46.4083 8.81987 43.728 8.13064C42.6604 7.84576 42.4261 7.47051 42.4261 7.16418C42.4391 6.99712 42.5073 6.83914 42.6201 6.71517C42.7328 6.5912 42.8836 6.5083 43.0487 6.47955C43.9577 6.32179 45.4357 6.81957 46.5615 7.47051L47.8243 5.3829C46.5431 4.56884 44.8154 4.02435 43.0686 4.02435C40.3117 4.02435 38.4485 5.46408 38.4485 7.90626V7.94684C38.4485 10.2466 40.0965 11.0024 42.7768 11.6917C43.8452 11.9766 44.0343 12.3717 44.0343 12.6015C44.0343 12.8312 43.8214 13.1498 43.3987 13.2095C42.2729 13.3673 40.4909 12.9001 39.2097 12.0654Z"
    fill="#0078D2"
  />
  <path
    fill-rule="evenodd"
    clip-rule="evenodd"
    d="M10.7865 11.1541C10.121 11.6802 9.26558 12.0019 7.96447 11.9123C5.74361 11.7591 4.44172 10.1134 4.44172 8.08319C4.44172 6.05302 5.82019 4.3307 7.96447 4.25412C9.26635 4.2074 10.0842 4.4785 10.7474 4.98241L12.871 1.94902C11.5347 0.89143 9.7312 0.425049 7.65814 0.425049C3.21642 0.425049 0 3.64147 0 8.08319C0 12.5249 3.21642 15.7413 7.65814 15.7413C9.76872 15.7413 11.6028 15.2566 12.9461 14.1569L10.7865 11.1541ZM69.153 8.08317C69.153 5.93889 67.3151 4.10093 63.7923 4.10093C61.9597 4.10093 60.6762 4.42947 59.9395 4.69367L60.5659 7.55552C64.4815 6.39837 65.7834 7.70026 65.6303 9.30847C65.6303 9.30847 64.0986 8.54265 62.4138 8.54265C59.9632 8.54265 58.5848 10.2274 58.5848 12.1037C58.5848 14.516 60.1164 15.7413 62.4138 15.7413C63.7632 15.7413 64.9479 15.134 65.6303 14.2166V15.435H69.153V8.08317ZM63.6391 13.061C62.7202 13.061 62.2607 12.6015 62.2607 11.8357C62.2607 11.0698 62.8733 10.6104 63.6391 10.6104C64.4968 10.6104 64.9542 10.7437 65.487 10.8991L65.6027 10.9328C65.6027 11.9888 65.0176 13.061 63.6391 13.061ZM13.3321 9.92112C13.3321 6.54541 15.9297 4.10093 19.3054 4.10093C22.6811 4.10093 25.2841 6.54541 25.2788 9.92112C25.2734 13.2968 22.6811 15.7413 19.3054 15.7413C15.9297 15.7413 13.3321 13.2968 13.3321 9.92112ZM17.0777 9.92112C17.0777 11.3762 17.9966 12.3717 19.2985 12.3717C20.6004 12.3717 21.5194 11.2996 21.5194 9.92112C21.5194 8.54265 20.6004 7.47051 19.2985 7.47051C17.9966 7.47051 17.0777 8.54265 17.0777 9.92112ZM33.3129 4.10093C32.0271 4.10093 30.8179 4.80625 30.0199 5.75586V4.40726H26.4972V15.435H30.0199V9.00214C30.0199 8.57562 30.1893 8.16656 30.4909 7.86497C30.7925 7.56337 31.2016 7.39393 31.6281 7.39393C32.0546 7.39393 32.4637 7.56337 32.7653 7.86497C33.0669 8.16656 33.2363 8.57562 33.2363 9.00214V15.435H36.7591V7.62368C36.7591 5.63256 35.4572 4.10093 33.3129 4.10093ZM53.3007 10.7099C53.3007 11.7591 53.9899 12.3717 55.2918 12.3717C55.8168 12.3565 56.3331 12.2329 56.8081 12.0087L57.7776 14.8338C57.0516 15.1968 55.6946 15.7413 54.1017 15.7413C51.3616 15.7413 49.8369 14.4164 49.7779 12.5249V1.42058H53.3007V4.40725H56.6702L56.5171 7.47051H53.3007V10.7099ZM58.3313 14.4494L58.3244 14.5351L58.355 14.516L58.3313 14.4494ZM39.2097 12.0654L37.9844 14.2097C39.4984 15.268 41.2835 15.8179 43.339 15.8209C46.2123 15.8209 48.0165 14.3368 48.0165 11.9153V11.8747C48.0165 9.59564 46.4083 8.81987 43.728 8.13064C42.6604 7.84576 42.4261 7.47051 42.4261 7.16418C42.4391 6.99712 42.5073 6.83914 42.6201 6.71517C42.7328 6.5912 42.8836 6.5083 43.0487 6.47955C43.9577 6.32179 45.4357 6.81957 46.5615 7.47051L47.8243 5.3829C46.5431 4.56884 44.8154 4.02435 43.0686 4.02435C40.3117 4.02435 38.4485 5.46408 38.4485 7.90626V7.94684C38.4485 10.2466 40.0965 11.0024 42.7768 11.6917C43.8452 11.9766 44.0343 12.3717 44.0343 12.6015C44.0343 12.8312 43.8214 13.1498 43.3987 13.2095C42.2729 13.3673 40.4909 12.9001 39.2097 12.0654Z"
    fill="url(#paint0_linear)"
    style="mix-blend-mode:overlay"
  />
  <defs>
    <linearGradient
      id="paint0_linear"
      x1="51.4799"
      y1="-23.5242"
      x2="14.9289"
      y2="38.7499"
      gradientUnits="userSpaceOnUse"
    >
      <stop stop-color="white" stop-opacity="0.6" />
      <stop offset="1" stop-color="white" stop-opacity="0" />
    </linearGradient>
  </defs>
</svg>

<svg xmlns="http://www.w3.org/2000/svg" width="100" height="16" fill="none">
  <path
    fill="#002033"
    fill-opacity=".6"
    fill-rule="evenodd"
    d="M88.4 1.3c0-.8.6-1.3 1.4-1.3.8 0 1.4.5 1.4 1.3 0 .9-.6 1.4-1.4 1.4-.8 0-1.4-.5-1.4-1.4zm.3 3.4h2.2v10.7h-2.2V4.7zM75.9 1h2.3V8L83.7 1h2.5l-4.4 5.6 5.2 8.8h-2.6l-4-7-2.2 2.7v4.3h-2.3V1zm18.7 5.5v5.4c0 2.3.9 3.8 3.3 3.8.8 0 1.5-.2 2.1-.4l-.4-1.7-1.2.3c-1 0-1.5-.7-1.5-2V6.5h2.8V4.7h-2.8v-3H95l-.3 3-1.6.1v1.7h1.5z"
    clip-rule="evenodd"
  />
  <path
    fill="#0078D2"
    fill-rule="evenodd"
    d="M10.8 11.2c-.7.5-1.5.8-2.8.7-2.3-.1-3.6-1.8-3.6-3.8 0-2 1.4-3.8 3.6-3.8 1.3 0 2 .2 2.7.7L13 2A8.3 8.3 0 007.7.3 7.4 7.4 0 000 8.1c0 4.4 3.2 7.6 7.7 7.6 2 0 3.9-.4 5.2-1.5l-2.1-3zM69.2 8c0-2.2-1.9-4-5.4-4-1.8 0-3.1.3-3.9.6l.7 2.9c3.9-1.2 5.2.1 5 1.7 0 0-1.5-.8-3.2-.8-2.4 0-3.8 1.7-3.8 3.6 0 2.4 1.5 3.6 3.8 3.6a4 4 0 003.2-1.5v1.2h3.6V8.1zm-5.6 5c-.9 0-1.3-.5-1.3-1.3 0-.7.6-1.2 1.3-1.2.9 0 1.4.1 1.9.3h.1c0 1-.6 2.2-2 2.2zM13.3 9.9c0-3.4 2.6-5.8 6-5.8s6 2.4 6 5.8-2.6 5.8-6 5.8-6-2.4-6-5.8zm3.8 0c0 1.5.9 2.5 2.2 2.5 1.3 0 2.2-1.1 2.2-2.5s-.9-2.4-2.2-2.4c-1.3 0-2.2 1-2.2 2.4zm16.2-5.8c-1.3 0-2.5.7-3.3 1.7V4.4h-3.5v11H30V9a1.6 1.6 0 113.2 0v6.4h3.6V7.6c0-2-1.3-3.5-3.5-3.5zm20 6.6c0 1 .7 1.7 2 1.7.5 0 1-.2 1.5-.4l1 2.8c-.7.4-2.1 1-3.7 1-2.7 0-4.3-1.4-4.3-3.3v-11h3.5v3h3.4l-.2 3h-3.2v3.2zm5 3.7v.1zm-19-2.3L38 14.2c1.5 1 3.3 1.6 5.3 1.6 3 0 4.7-1.5 4.7-3.9 0-2.3-1.6-3-4.3-3.8-1-.3-1.3-.6-1.3-1a.8.8 0 01.6-.6c1-.2 2.4.3 3.6 1l1.2-2.1c-1.3-.8-3-1.4-4.7-1.4-2.8 0-4.7 1.5-4.7 4 0 2.2 1.7 3 4.4 3.7 1 .3 1.2.7 1.2.9 0 .2-.2.5-.6.6a7 7 0 01-4.2-1.1z"
    clip-rule="evenodd"
  />
  <path
    fill="url(#paint0_linear)"
    fill-rule="evenodd"
    d="M10.8 11.2c-.7.5-1.5.8-2.8.7-2.3-.1-3.6-1.8-3.6-3.8 0-2 1.4-3.8 3.6-3.8 1.3 0 2 .2 2.7.7L13 2A8.3 8.3 0 007.7.3 7.4 7.4 0 000 8.1c0 4.4 3.2 7.6 7.7 7.6 2 0 3.9-.4 5.2-1.5l-2.1-3zM69.2 8c0-2.2-1.9-4-5.4-4-1.8 0-3.1.3-3.9.6l.7 2.9c3.9-1.2 5.2.1 5 1.7 0 0-1.5-.8-3.2-.8-2.4 0-3.8 1.7-3.8 3.6 0 2.4 1.5 3.6 3.8 3.6a4 4 0 003.2-1.5v1.2h3.6V8.1zm-5.6 5c-.9 0-1.3-.5-1.3-1.3 0-.7.6-1.2 1.3-1.2.9 0 1.4.1 1.9.3h.1c0 1-.6 2.2-2 2.2zM13.3 9.9c0-3.4 2.6-5.8 6-5.8s6 2.4 6 5.8-2.6 5.8-6 5.8-6-2.4-6-5.8zm3.8 0c0 1.5.9 2.5 2.2 2.5 1.3 0 2.2-1.1 2.2-2.5s-.9-2.4-2.2-2.4c-1.3 0-2.2 1-2.2 2.4zm16.2-5.8c-1.3 0-2.5.7-3.3 1.7V4.4h-3.5v11H30V9a1.6 1.6 0 113.2 0v6.4h3.6V7.6c0-2-1.3-3.5-3.5-3.5zm20 6.6c0 1 .7 1.7 2 1.7.5 0 1-.2 1.5-.4l1 2.8c-.7.4-2.1 1-3.7 1-2.7 0-4.3-1.4-4.3-3.3v-11h3.5v3h3.4l-.2 3h-3.2v3.2zm5 3.7v.1zm-19-2.3L38 14.2c1.5 1 3.3 1.6 5.3 1.6 3 0 4.7-1.5 4.7-3.9 0-2.3-1.6-3-4.3-3.8-1-.3-1.3-.6-1.3-1a.8.8 0 01.6-.6c1-.2 2.4.3 3.6 1l1.2-2.1c-1.3-.8-3-1.4-4.7-1.4-2.8 0-4.7 1.5-4.7 4 0 2.2 1.7 3 4.4 3.7 1 .3 1.2.7 1.2.9 0 .2-.2.5-.6.6a7 7 0 01-4.2-1.1z"
    clip-rule="evenodd"
    style="mix-blend-mode:overlay"
  />
  <defs>
    <linearGradient
      id="paint0_linear"
      x1="51.5"
      x2="14.9"
      y1="-23.5"
      y2="38.7"
      gradientUnits="userSpaceOnUse"
    >
      <stop stop-color="#fff" stop-opacity=".6" />
      <stop offset="1" stop-color="#fff" stop-opacity="0" />
    </linearGradient>
  </defs>
</svg>
